app/images/icons/puzzles.svg

<svg width="49" height="39" xmlns="http://www.w3.org/2000/svg">
  <path d="M41.277 9.13665V9.05762C41.277 8.16147 41.5775 7.28967 42.0971 6.50605C42.514 5.87744 42.7515 5.1542 42.7515 4.38436C42.7515 1.90654 40.2949 -0.0912397 37.3084 0.00321707C34.6331 0.0878569 32.4361 1.88666 32.2809 4.1231C32.2202 4.99697 32.4661 5.81895 32.9365 6.52164C33.471 7.32011 33.7463 8.22161 33.7463 9.13681C33.7463 9.68417 33.216 10.1278 32.5619 10.1278H22.7862L24.5 32.6918V36.1151C24.5 37.2803 25.629 38.225 27.0216 38.225H46.4784C47.871 38.225 49 37.2803 49 36.1151V12.2376C49 11.0723 47.871 10.1277 46.4784 10.1277H42.4614C41.8074 10.1277 41.277 9.684 41.277 9.13665Z" fill="#F8C1D5" />
  <path d="M40.4857 4.38436C40.4857 5.15428 40.2481 5.87744 39.8314 6.50605C39.3118 7.28967 39.0113 8.16147 39.0113 9.05762V9.13665C39.0113 9.684 39.5416 10.1277 40.1957 10.1277H42.4613C41.8072 10.1277 41.2769 9.68392 41.2769 9.13665V9.05762C41.2769 8.16147 41.5774 7.28967 42.097 6.50605C42.5139 5.87744 42.7514 5.1542 42.7514 4.38436C42.7514 1.90654 40.2948 -0.0912397 37.3083 0.00321707C36.9922 0.013199 36.6829 0.0479293 36.3827 0.103778C38.7299 0.538197 40.4857 2.28957 40.4857 4.38436Z" fill="black" fill-opacity="0.1" />
  <path d="M46.4784 10.1279H44.2128C45.6054 10.1279 46.7344 11.0726 46.7344 12.2378V36.1153C46.7344 37.2805 45.6054 38.2251 44.2128 38.2251H46.4784C47.8711 38.2251 49 37.2805 49 36.1153V12.2378C49 11.0726 47.8711 10.1279 46.4784 10.1279Z" fill="black" fill-opacity="0.1" />
  <path d="M16.0154 5.76338C16.0154 6.67849 16.2907 7.58008 16.8251 8.37847C17.2956 9.08124 17.5415 9.9033 17.4808 10.7772C17.3254 13.0135 15.1284 14.8122 12.4531 14.8969C9.46666 14.9913 7.01006 12.9936 7.01006 10.5157C7.01006 9.74582 7.24766 9.02267 7.66441 8.39406C8.18398 7.61044 8.48449 6.73863 8.48449 5.84249V5.76346C8.48449 4.86748 7.61639 4.14111 6.54559 4.14111H2.52158C1.12897 4.14111 0 5.08576 0 6.251V30.5821C0 31.7473 1.12897 32.692 2.52158 32.692H24.5V6.251C24.5 5.08576 23.371 4.14111 21.9784 4.14111H17.9542C16.8834 4.14111 16.0154 4.8674 16.0154 5.76338Z" fill="#5AD4FA" />
  <path d="M6.21901 5.76305V5.84208C6.21901 6.73823 5.91851 7.61012 5.39893 8.39365C4.98209 9.02226 4.74458 9.7455 4.74458 10.5153C4.74458 12.9932 7.20109 14.9909 10.1876 14.8965C10.5039 14.8865 10.8131 14.8518 11.1134 14.7959C8.76613 14.3614 7.01031 12.6101 7.01031 10.5153C7.01031 9.74533 7.24792 9.02218 7.66466 8.39357C8.18424 7.60995 8.48475 6.73806 8.48475 5.842V5.76297C8.48475 4.86699 7.61665 4.14062 6.54585 4.14062H4.28021C5.35092 4.14079 6.21901 4.86708 6.21901 5.76305Z" fill="black" fill-opacity="0.1" />
  <path d="M22.2344 6.25052V18.8926C22.2344 19.2712 22.6012 19.5782 23.0537 19.5782H24.5V6.25052C24.5 5.08527 23.3711 4.14062 21.9785 4.14062H19.7128C21.1054 4.14062 22.2344 5.08527 22.2344 6.25052Z" fill="black" fill-opacity="0.1" />
  <path d="M22.2344 26.5648V32.6915H24.5V25.8794H23.0536C22.6011 25.8793 22.2344 26.1863 22.2344 26.5648Z" fill="black" fill-opacity="0.1" />
  <path d="M30.8197 18.3482C29.8128 18.3149 28.8663 18.5199 28.0534 18.9009C27.0991 19.3481 26.0217 19.5785 24.9279 19.5785H20.0944V25.8797H24.9273C26.014 25.8797 27.089 26.101 28.0349 26.5486C28.7947 26.9081 29.6724 27.1135 30.6076 27.1135C33.5281 27.1135 35.8905 25.1143 35.8469 22.6622C35.8056 20.3492 33.5822 18.4396 30.8197 18.3482Z" fill="#E5646E" />
  <path d="M30.8197 18.3482C29.8128 18.3149 28.8663 18.5199 28.0534 18.9009C27.0991 19.3481 26.0217 19.5785 24.9279 19.5785H20.0944V25.8797H24.9273C26.014 25.8797 27.089 26.101 28.0349 26.5486C28.7947 26.9081 29.6724 27.1135 30.6076 27.1135C33.5281 27.1135 35.8905 25.1143 35.8469 22.6622C35.8056 20.3492 33.5822 18.4396 30.8197 18.3482Z" fill="#5AD4FA" />
  <path d="M30.8197 18.3482C30.3551 18.3328 29.9035 18.3688 29.4718 18.4488C31.7931 18.8797 33.5447 20.6119 33.5812 22.6622C33.619 24.7878 31.8482 26.5722 29.4736 27.0098C29.8388 27.0774 30.218 27.1134 30.6075 27.1134C33.528 27.1134 35.8905 25.1143 35.8468 22.6622C35.8057 20.3491 33.5822 18.4395 30.8197 18.3482Z" fill="black" fill-opacity="0.1" />
</svg>

<svg width="49" height="39" xmlns="http://www.w3.org/2000/svg">
  <path d="M41.28 9.14v-.08c0-.9.3-1.77.82-2.55.41-.63.65-1.36.65-2.13 0-2.47-2.46-4.47-5.44-4.38-2.68.09-4.87 1.89-5.03 4.12-.06.88.19 1.7.66 2.4.53.8.8 1.7.8 2.62 0 .54-.52.99-1.18.99H22.8l1.71 22.56v3.43c0 1.16 1.13 2.1 2.52 2.1h19.46c1.4 0 2.52-.94 2.52-2.1V12.24c0-1.17-1.13-2.11-2.52-2.11h-4.02c-.65 0-1.18-.45-1.18-1Z" fill="#F8C1D5" />
  <path d="M40.49 4.38c0 .77-.24 1.5-.66 2.13a4.62 4.62 0 0 0-.82 2.55v.08c0 .54.53.99 1.19.99h2.26c-.65 0-1.18-.45-1.18-1v-.07c0-.9.3-1.77.82-2.55.41-.63.65-1.36.65-2.13 0-2.47-2.46-4.47-5.44-4.38-.32.01-.63.05-.93.1 2.35.44 4.1 2.19 4.1 4.28ZM46.48 10.13H44.2c1.4 0 2.52.94 2.52 2.1v23.89c0 1.16-1.12 2.1-2.52 2.1h2.27c1.4 0 2.52-.94 2.52-2.1V12.24c0-1.17-1.13-2.11-2.52-2.11Z" fill-opacity=".1" />
  <path d="M16.02 5.76c0 .92.27 1.82.8 2.62.48.7.72 1.52.66 2.4-.15 2.23-2.35 4.03-5.03 4.12-2.98.1-5.44-1.9-5.44-4.38 0-.77.24-1.5.65-2.13.52-.78.82-1.65.82-2.55v-.08c0-.9-.86-1.62-1.93-1.62H2.52C1.12 4.14 0 5.1 0 6.25v24.33c0 1.17 1.13 2.11 2.52 2.11H24.5V6.25c0-1.16-1.13-2.1-2.52-2.1h-4.03c-1.07 0-1.93.72-1.93 1.61Z" fill="#5AD4FA" />
  <path d="M6.22 5.76v.08c0 .9-.3 1.77-.82 2.55a3.82 3.82 0 0 0-.66 2.13c0 2.47 2.46 4.47 5.45 4.38.31-.01.62-.05.92-.1-2.34-.44-4.1-2.19-4.1-4.28 0-.77.24-1.5.65-2.13.52-.78.82-1.65.82-2.55v-.08c0-.9-.86-1.62-1.93-1.62H4.28c1.07 0 1.94.73 1.94 1.62ZM22.23 6.25V18.9c0 .38.37.69.82.69h1.45V6.25c0-1.16-1.13-2.1-2.52-2.1H19.7c1.4 0 2.52.94 2.52 2.1ZM22.23 26.56v6.13h2.27v-6.81h-1.45c-.45 0-.82.3-.82.68Z" fill-opacity=".1" />
  <path d="M30.82 18.35c-1-.04-1.95.17-2.77.55a7.4 7.4 0 0 1-3.12.68h-4.84v6.3h4.84a7.3 7.3 0 0 1 3.1.67c.76.36 1.64.56 2.58.56 2.92 0 5.28-2 5.24-4.45-.04-2.31-2.27-4.22-5.03-4.31Z" fill="#E5646E" />
  <path d="M30.82 18.35c-1-.04-1.95.17-2.77.55a7.4 7.4 0 0 1-3.12.68h-4.84v6.3h4.84a7.3 7.3 0 0 1 3.1.67c.76.36 1.64.56 2.58.56 2.92 0 5.28-2 5.24-4.45-.04-2.31-2.27-4.22-5.03-4.31Z" fill="#5AD4FA" />
  <path d="M30.82 18.35c-.46-.02-.92.02-1.35.1 2.32.43 4.07 2.16 4.11 4.21.04 2.13-1.73 3.91-4.1 4.35.36.07.74.1 1.13.1 2.92 0 5.28-2 5.24-4.45-.04-2.31-2.27-4.22-5.03-4.31Z" fill-opacity=".1" />
</svg>
